X: 3439
T: Beti O Lansanffraid
R: slip jig
M: 9/8
K: Gminor
d/c/|BAG GAG GAB|AGA FGA c2d/c/|BAG GAG GAB|cdc cBAB2:|
F|Bcd edc dfd|Bcd edcd2F|Bcd edc dfd|cdc cBAB2:|

